X: 32
T: Ding, Dong, Bell
C: Mother Goose
%R: air, march
B: "The Everyday Song Book", 1927
F: http://www.library.pitt.edu/happybirthday/pdf/The_Everyday_Song_Book.pdf
Z: 2017 John Chambers <jc:trillian.mit.edu>
M: C
L: 1/8
K: F
% - - - - - - - - - - - - - - -
|: F2 A2 c4 | c B A G F4 | F2 A A  c4 |
w: Ding, dong, bell, Pus-sy's in the well; Who put her in?
%
   c B A G F4 | d2 c B A4 | C2 (DE) F4 |
w: Lit-tle John-y Green; Who pulled her out? Big John* Stout.
%
   d2 d2 c2 c2 | B2 B2 A2 A2 | B2 B2 A2 A2 | G2 G2 F4 :|
w: What a naught-y boy was that, To drown our lit-tle Pus-sy-cat!
% - - - - - - - - - - - - - - -
